X: 19275
T: Ivy Leaf, The
R: reel
M: 4/4
K: Amixolydian
A2 ed cdec|Acec dBGB|A2 ed cdec|B~E3 GABd|
A2 ed cdec|Acec dBGB|A2 ed cdec|B~E3 GABd||
e~a3 edBd|e~g3 dBGB|e~a3 edBA|B~E3 GABd|
e~a3 edBd|e~g3 dBGB|A2 AB =cBcd|e/f/g fa gedB||

